X:11
T:Shiley Me Gile
M:6/8
L:1/8
K:G
%%MIDI channel 1
%%MIDI program 72
%%MIDI transpose 8
%%MIDI grace 1/8
%%MIDI ratio 3 1
D|G2G GBG|BAB c2c|dcB ABc|BAB G2D|G2G GBG|BAB c2e|dcB ABc|BGG G2::
z|Bcd gag|BBB B3|efg aba|ddd d3|Bcd gag|dcB A2e|dcB ABc|BGG G2:|

